src/main/resources/cards/fronts/diamonds_8.svg

<?xml version="1.0" encoding="UTF-8" standalone="no"?>
<!-- Created with Inkscape (http://www.inkscape.org/) -->

<svg
   xmlns:dc="http://purl.org/dc/elements/1.1/"
   xmlns:cc="http://creativecommons.org/ns#"
   xmlns:rdf="http://www.w3.org/1999/02/22-rdf-syntax-ns#"
   xmlns:svg="http://www.w3.org/2000/svg"
   xmlns="http://www.w3.org/2000/svg"
   xmlns:sodipodi="http://sodipodi.sourceforge.net/DTD/sodipodi-0.dtd"
   xmlns:inkscape="http://www.inkscape.org/namespaces/inkscape"
   width="234"
   height="333.00003"
   id="svg2"
   version="1.1"
   inkscape:version="0.92.4 (5da689c313, 2019-01-14)"
   sodipodi:docname="diamonds_8.svg"
   inkscape:export-filename="C:\Users\fowle\OneDrive\Projects\Playing-Cards\fronts\png-096-dpi\diamonds_8.png"
   inkscape:export-xdpi="96"
   inkscape:export-ydpi="96">
  <title
     id="title888">Eight of Diamonds Playing Card</title>
  <defs
     id="defs4" />
  <sodipodi:namedview
     id="base"
     pagecolor="#ffffff"
     bordercolor="#666666"
     borderopacity="1.0"
     inkscape:pageopacity="0.0"
     inkscape:pageshadow="2"
     inkscape:zoom="2.1916676"
     inkscape:cx="50.415385"
     inkscape:cy="163.89266"
     inkscape:document-units="px"
     inkscape:current-layer="layer1"
     showgrid="false"
     inkscape:showpageshadow="false"
     showguides="true"
     inkscape:guide-bbox="true"
     inkscape:snap-global="true"
     inkscape:window-width="1456"
     inkscape:window-height="976"
     inkscape:window-x="249"
     inkscape:window-y="9"
     inkscape:window-maximized="0"
     showborder="false"
     fit-margin-top="0"
     fit-margin-left="0"
     fit-margin-right="0"
     fit-margin-bottom="0">
    <inkscape:grid
       type="xygrid"
       id="grid3767"
       empspacing="5"
       visible="true"
       enabled="true"
       snapvisiblegridlinesonly="true"
       originx="0"
       originy="5.1666068e-06" />
  </sodipodi:namedview>
  <metadata
     id="metadata7">
    <rdf:RDF>
      <cc:Work
         rdf:about="">
        <dc:format>image/svg+xml</dc:format>
        <dc:type
           rdf:resource="http://purl.org/dc/dcmitype/StillImage" />
        <dc:title>Eight of Diamonds Playing Card</dc:title>
        <cc:license
           rdf:resource="http://creativecommons.org/publicdomain/zero/1.0/" />
        <dc:date>2020-05-05</dc:date>
        <dc:creator>
          <cc:Agent>
            <dc:title>Daniel S. Fowler</dc:title>
          </cc:Agent>
        </dc:creator>
        <dc:rights>
          <cc:Agent>
            <dc:title>Public Domain</dc:title>
          </cc:Agent>
        </dc:rights>
        <dc:publisher>
          <cc:Agent>
            <dc:title>https://tekeye.uk</dc:title>
          </cc:Agent>
        </dc:publisher>
        <dc:language>en-GB</dc:language>
        <dc:subject>
          <rdf:Bag>
            <rdf:li>eight; diamonds; playing; card; white; red;</rdf:li>
          </rdf:Bag>
        </dc:subject>
        <dc:description>A eight of diamonds playing card.</dc:description>
      </cc:Work>
      <cc:License
         rdf:about="http://creativecommons.org/publicdomain/zero/1.0/">
        <cc:permits
           rdf:resource="http://creativecommons.org/ns#Reproduction" />
        <cc:permits
           rdf:resource="http://creativecommons.org/ns#Distribution" />
        <cc:permits
           rdf:resource="http://creativecommons.org/ns#DerivativeWorks" />
      </cc:License>
    </rdf:RDF>
  </metadata>
  <g
     inkscape:label="Layer 1"
     inkscape:groupmode="layer"
     id="layer1"
     style="fill:#F00"
     transform="translate(0,-719.36216)">
    <g
       id="g920">
      <rect
         rx="8.9191856"
         ry="8.9457436"
         y="719.74011"
         x="0.37795275"
         height="332.24411"
         width="233.24409"
         id="rect4266"
         style="fill:#ffffff;fill-opacity:1;stroke:#808080;stroke-width:0.75590551;stroke-linecap:butt;stroke-linejoin:miter;stroke-miterlimit:4;stroke-dasharray:none;stroke-opacity:1" />
      <g
         transform="matrix(0.07348588,0,0,0.07370838,-248.01731,933.60062)"
         id="g4233"
         style="fill:none;stroke:#000000;stroke-width:3.18132639;stroke-opacity:1" />
      <g
         clip-path="none"
         style="fill:none;stroke:#000000;stroke-width:3.18132639;stroke-opacity:1"
         id="g4211"
         transform="matrix(0.07348588,0,0,0.07370838,-248.01728,933.60062)" />
      <g
         transform="matrix(0.07348588,0,0,0.07370838,-248.01731,933.60062)"
         id="g4227"
         style="fill:none;stroke:#000000;stroke-width:3.18132639;stroke-opacity:1" />
      <path
         inkscape:export-ydpi="95.969437"
         inkscape:export-xdpi="95.969437"
         inkscape:export-filename="D:\DAN\Documents\Projects\Playing Cards\test.png"
         inkscape:connector-curvature="0"
         id="path4884-1"
         d="M 58.629672,814.07624 86.87338,785.73971 58.629672,757.40317 30.385965,785.73971 Z"
         style="fill:#ff0000;fill-opacity:1;stroke:none;stroke-width:1" />
      <path
         inkscape:export-ydpi="95.969437"
         inkscape:export-xdpi="95.969437"
         inkscape:export-filename="D:\DAN\Documents\Projects\Playing Cards\test.png"
         inkscape:connector-curvature="0"
         id="path4884-1-4"
         d="M 58.629676,1014.3212 86.87338,985.98462 58.629676,957.64809 30.385965,985.98462 Z"
         style="fill:#ff0000;fill-opacity:1;stroke:none;stroke-width:1" />
      <path
         inkscape:export-ydpi="95.969437"
         inkscape:export-xdpi="95.969437"
         inkscape:export-filename="D:\DAN\Documents\Projects\Playing Cards\test.png"
         inkscape:connector-curvature="0"
         id="path4884-1-4-1"
         d="M 117,964.25993 145.24371,935.92339 117,907.58687 88.756294,935.92339 Z"
         style="fill:#ff0000;fill-opacity:1;stroke:none;stroke-width:1" />
      <path
         inkscape:export-ydpi="95.969437"
         inkscape:export-xdpi="95.969437"
         inkscape:export-filename="D:\DAN\Documents\Projects\Playing Cards\test.png"
         inkscape:connector-curvature="0"
         id="path4884-1-7"
         d="M 58.629672,914.1987 86.87338,885.86217 58.629672,857.52563 30.385965,885.86217 Z"
         style="fill:#ff0000;fill-opacity:1;stroke:none;stroke-width:1" />
      <path
         inkscape:export-ydpi="95.969437"
         inkscape:export-xdpi="95.969437"
         inkscape:export-filename="D:\DAN\Documents\Projects\Playing Cards\test.png"
         inkscape:connector-curvature="0"
         id="path4884-1-40"
         d="M 175.37033,814.07623 203.61404,785.7397 175.37033,757.40316 147.12662,785.7397 Z"
         style="fill:#ff0000;fill-opacity:1;stroke:none;stroke-width:1" />
      <path
         inkscape:export-ydpi="95.969437"
         inkscape:export-xdpi="95.969437"
         inkscape:export-filename="D:\DAN\Documents\Projects\Playing Cards\test.png"
         inkscape:connector-curvature="0"
         id="path4884-1-4-9"
         d="m 175.37033,1014.3212 28.24371,-28.33659 -28.24371,-28.33654 -28.24371,28.33654 z"
         style="fill:#ff0000;fill-opacity:1;stroke:none;stroke-width:1" />
      <path
         inkscape:export-ydpi="95.969437"
         inkscape:export-xdpi="95.969437"
         inkscape:export-filename="D:\DAN\Documents\Projects\Playing Cards\test.png"
         inkscape:connector-curvature="0"
         id="path4884-1-4-1-4"
         d="M 117,864.13747 145.24371,835.80094 117,807.46441 88.756294,835.80094 Z"
         style="fill:#ff0000;fill-opacity:1;stroke:none;stroke-width:1" />
      <path
         inkscape:export-ydpi="95.969437"
         inkscape:export-xdpi="95.969437"
         inkscape:export-filename="D:\DAN\Documents\Projects\Playing Cards\test.png"
         inkscape:connector-curvature="0"
         id="path4884-1-7-8"
         d="m 175.37033,914.1987 28.24371,-28.33653 -28.24371,-28.33654 -28.24371,28.33654 z"
         style="fill:#ff0000;fill-opacity:1;stroke:none;stroke-width:1" />
      <path
         inkscape:connector-curvature="0"
         id="path4884-1-4-5-3"
         d="m 17.205569,780.7021 9.414569,-9.44551 -9.414569,-9.44552 -9.4145688,9.44552 z"
         style="fill:#ff0000;fill-opacity:1;stroke:none;stroke-width:1" />
      <path
         inkscape:connector-curvature="0"
         id="path4884-1-4-5-3-5"
         d="m 216.79443,991.02224 9.41457,9.44556 -9.41457,9.4455 -9.41457,-9.4455 z"
         style="fill:#ff0000;fill-opacity:1;stroke:none;stroke-width:1" />
      <g
         id="text3755"
         style="font-style:normal;font-variant:normal;font-weight:bold;font-stretch:normal;font-size:3.77201176px;line-height:0%;font-family:'Levenim MT';-inkscape-font-specification:'Sans Bold';letter-spacing:0px;word-spacing:0px;fill:#ff0000;fill-opacity:1;stroke:none;stroke-width:1"
         transform="scale(0.97854983,1.0219204)"
         aria-label="8">
        <path
                id="path896"
                style="font-size:38.71057892px;line-height:1.25;stroke-width:1"
                d="m 27.203661,731.19934 q 0,4.10166 -2.910854,6.23754 -2.551723,1.87127 -6.785692,1.87127 -4.196166,0 -6.747889,-2.00358 -2.7974443,-2.21149 -2.7974443,-6.29425 0,-4.29067 4.5174943,-6.31315 -3.4779036,-2.21149 -3.4779036,-6.31315 0,-3.61021 2.8352476,-5.36807 2.324903,-1.43652 6.124134,-1.43652 3.459002,0 5.689397,1.68224 2.457215,1.89017 2.457215,5.25466 0,3.85594 -3.459002,6.16194 4.555297,1.92797 4.555297,6.52107 z M 21.325248,719.2346 q 0,-3.53461 -3.78033,-3.53461 -1.72005,0 -2.740739,0.92618 -1.020689,0.90728 -1.020689,2.60843 0,1.64444 1.077394,2.60842 1.020689,0.94509 2.684034,0.94509 1.625542,0 2.702936,-0.96399 1.077394,-0.96398 1.077394,-2.58952 z m 0.888378,11.79463 q 0,-1.96578 -1.342017,-3.09988 -1.266411,-1.07739 -3.269986,-1.07739 -1.965771,0 -3.232182,1.0963 -1.360919,1.153 -1.360919,3.08097 0,2.02247 1.323116,3.13767 1.228607,1.03959 3.288887,1.03959 2.041378,0 3.269985,-1.05849 1.323116,-1.1152 1.323116,-3.11877 z" />
      </g>
      <g
         id="text3755-2"
         style="font-style:normal;font-variant:normal;font-weight:bold;font-stretch:normal;font-size:3.77201176px;line-height:0%;font-family:'Levenim MT';-inkscape-font-specification:'Sans Bold';letter-spacing:0px;word-spacing:0px;fill:#ff0000;fill-opacity:1;stroke:none;stroke-width:1"
         transform="scale(-0.97854983,-1.0219204)"
         aria-label="8">
        <path
           id="path899"
           style="font-size:38.71057892px;line-height:1.25;stroke-width:1"
           d="m -211.92571,-1002.5212 q 0,4.10168 -2.91086,6.23756 -2.55172,1.87127 -6.78569,1.87127 -4.19617,0 -6.74789,-2.00358 -2.79744,-2.21149 -2.79744,-6.29425 0,-4.2907 4.51749,-6.3131 -3.4779,-2.2115 -3.4779,-6.3132 0,-3.6102 2.83525,-5.3681 2.3249,-1.4365 6.12413,-1.4365 3.459,0 5.6894,1.6823 2.45721,1.8901 2.45721,5.2546 0,3.8559 -3.459,6.162 4.5553,1.9279 4.5553,6.521 z m -5.87842,-11.9647 q 0,-3.5346 -3.78033,-3.5346 -1.72005,0 -2.74074,0.9261 -1.02068,0.9073 -1.02068,2.6085 0,1.6444 1.07739,2.6084 1.02069,0.9451 2.68403,0.9451 1.62555,0 2.70294,-0.964 1.07739,-0.964 1.07739,-2.5895 z m 0.88838,11.7946 q 0,-1.9658 -1.34202,-3.0999 -1.26641,-1.0774 -3.26998,-1.0774 -1.96577,0 -3.23218,1.0963 -1.36092,1.153 -1.36092,3.081 0,2.0225 1.32311,3.13768 1.22861,1.03959 3.28889,1.03959 2.04138,0 3.26999,-1.05849 1.32311,-1.11518 1.32311,-3.11878 z" />
      </g>
    </g>
  </g>
</svg>

<svg width="234" height="333.00003" xmlns="http://www.w3.org/2000/svg">
    <g id="layer1" transform="matrix(1 0 0 1 0 -719.3622)">
        <g id="g920">
            <path id="rect4266" fill="#ffffff" stroke="#808080" stroke-width="0.7559055" d="M 9.297138 719.7401 L 224.70288 719.7401 C 229.6288 719.7401 233.62206 723.74524 233.62206 728.68585 L 233.62206 1043.0385 C 233.62207 1045.411 232.68237 1047.6864 231.0097 1049.3641 C 229.33702 1051.0417 227.06839 1051.9843 224.70288 1051.9843 L 9.297138 1051.9843 C 6.9316134 1051.9843 4.662975 1051.0417 2.9903018 1049.3641 C 1.3176281 1047.6864 0.3779376 1045.411 0.37795275 1043.0385 L 0.37795275 728.68585 C 0.37795484 723.74524 4.3712096 719.7401 9.297138 719.7401 Z"/>
            <g id="g4233" transform="matrix(0.07348588 0 0 0.07370838 -248.0173 933.60065)"/>
            <g id="g4211" transform="matrix(0.07348588 0 0 0.07370838 -248.01726 933.60065)"/>
            <g id="g4227" transform="matrix(0.07348588 0 0 0.07370838 -248.0173 933.60065)"/>
            <path id="path4884-1" fill="#ff0000" stroke="none" d="M 58.629673 814.07623 L 86.87338 785.7397 L 58.629673 757.40326 L 30.385965 785.7397 Z"/>
            <path id="path4884-1-4" fill="#ff0000" stroke="none" d="M 58.629677 1014.3212 L 86.87338 985.9846 L 58.629677 957.6481 L 30.385965 985.9846 Z"/>
            <path id="path4884-1-4-1" fill="#ff0000" stroke="none" d="M 117 964.25995 L 145.24371 935.9234 L 117 907.58685 L 88.756294 935.9234 Z"/>
            <path id="path4884-1-7" fill="#ff0000" stroke="none" d="M 58.629673 914.19867 L 86.87338 885.8622 L 58.629673 857.52563 L 30.385965 885.8622 Z"/>
            <path id="path4884-1-40" fill="#ff0000" stroke="none" d="M 175.37032 814.07623 L 203.61404 785.7397 L 175.37032 757.40314 L 147.12662 785.7397 Z"/>
            <path id="path4884-1-4-9" fill="#ff0000" stroke="none" d="M 175.37032 1014.3212 L 203.61404 985.9846 L 175.37032 957.6481 L 147.12662 985.9846 Z"/>
            <path id="path4884-1-4-1-4" fill="#ff0000" stroke="none" d="M 117 864.13745 L 145.24371 835.8009 L 117 807.4644 L 88.756294 835.8009 Z"/>
            <path id="path4884-1-7-8" fill="#ff0000" stroke="none" d="M 175.37032 914.19867 L 203.61404 885.8622 L 175.37032 857.52563 L 147.12662 885.8622 Z"/>
            <path id="path4884-1-4-5-3" fill="#ff0000" stroke="none" d="M 17.205568 780.7021 L 26.620136 771.2566 L 17.205568 761.8111 L 7.7910004 771.2566 Z"/>
            <path id="path4884-1-4-5-3-5" fill="#ff0000" stroke="none" d="M 216.79443 991.0222 L 226.209 1000.4677 L 216.79443 1009.9134 L 207.37987 1000.4677 Z"/>
            <g id="text3755" transform="matrix(0.97854984 0 0 1.0219204 0 0)">
                <path id="path896" fill="#ff0000" stroke="none" d="M 27.203661 731.19934 Q 27.203661 735.3011 24.292809 737.4369 Q 21.741085 739.30817 17.507114 739.30817 Q 13.310949 739.30817 10.759226 737.30457 Q 7.961782 735.0931 7.961782 731.0103 Q 7.961782 726.71967 12.479276 724.69714 Q 9.001372 722.48566 9.001372 718.38403 Q 9.001372 714.7738 11.83662 713.0159 Q 14.161523 711.5794 17.960754 711.5794 Q 21.419756 711.5794 23.65015 713.26166 Q 26.107367 715.15186 26.107367 718.51636 Q 26.107367 722.37225 22.648363 724.6782 Q 27.203661 726.60626 27.203661 731.19934 Z M 21.325249 719.23456 Q 21.325249 715.69995 17.544918 715.69995 Q 15.824868 715.69995 14.804179 716.62616 Q 13.78349 717.53345 13.78349 719.23456 Q 13.78349 720.879 14.860883 721.843 Q 15.881573 722.7881 17.544918 722.7881 Q 19.17046 722.7881 20.247854 721.8241 Q 21.325249 720.8602 21.325249 719.23456 Z M 22.213627 731.02924 Q 22.213627 729.0635 20.871609 727.9293 Q 19.605198 726.852 17.601624 726.852 Q 15.635852 726.852 14.369441 727.94824 Q 13.008522 729.10126 13.008522 731.02924 Q 13.008522 733.0517 14.331637 734.1669 Q 15.560245 735.20654 17.620525 735.20654 Q 19.661903 735.20654 20.89051 734.148 Q 22.213627 733.0328 22.213627 731.02924 Z"/>
            </g>
            <g id="text3755-2" transform="matrix(-0.97854984 0 0 -1.0219204 0 0)">
                <path id="path899" fill="#ff0000" stroke="none" d="M -211.9257 -1002.5212 Q -211.9257 -998.4195 -214.83658 -996.28357 Q -217.3883 -994.41235 -221.62225 -994.41235 Q -225.81844 -994.41235 -228.37015 -996.41595 Q -231.16759 -998.6274 -231.16759 -1002.7102 Q -231.16759 -1007.0009 -226.65009 -1009.0233 Q -230.128 -1011.2348 -230.128 -1015.3365 Q -230.128 -1018.94666 -227.29276 -1020.7046 Q -224.96785 -1022.1412 -221.16862 -1022.1412 Q -217.70963 -1022.1412 -215.47922 -1020.45874 Q -213.022 -1018.5687 -213.022 -1015.2042 Q -213.022 -1011.3483 -216.48099 -1009.0422 Q -211.9257 -1007.1143 -211.9257 -1002.5212 Z M -217.80412 -1014.4859 Q -217.80412 -1018.0205 -221.58447 -1018.0205 Q -223.3045 -1018.0205 -224.3252 -1017.09436 Q -225.34589 -1016.1871 -225.34589 -1014.4859 Q -225.34589 -1012.8415 -224.2685 -1011.8775 Q -223.24782 -1010.9324 -221.58447 -1010.9324 Q -219.95891 -1010.9324 -218.88152 -1011.8964 Q -217.80412 -1012.8604 -217.80412 -1014.4859 Z M -216.91576 -1002.6913 Q -216.91576 -1004.6571 -218.25778 -1005.79126 Q -219.52419 -1006.8686 -221.52776 -1006.8686 Q -223.49352 -1006.8686 -224.75993 -1005.77234 Q -226.12085 -1004.61926 -226.12085 -1002.6913 Q -226.12085 -1000.6689 -224.79773 -999.55365 Q -223.56914 -998.51404 -221.50885 -998.51404 Q -219.46747 -998.51404 -218.23885 -999.5725 Q -216.91576 -1000.6877 -216.91576 -1002.6913 Z"/>
            </g>
        </g>
    </g>
</svg>
